Newaita-dark/apps/64/empathy.svg

<svg height="64pt" viewBox="0 0 64 64" width="64pt" xmlns="http://www.w3.org/2000/svg" xmlns:xlink="http://www.w3.org/1999/xlink"><linearGradient id="a"><stop offset="0" stop-opacity=".313726"/><stop offset=".222222" stop-opacity=".27451"/><stop offset="1" stop-opacity="0"/></linearGradient><radialGradient id="b" cx="450.908936" cy="189.579361" gradientTransform="matrix(.00000021 -.156265 -.168766 -.0000002 83.857771 129.836749)" gradientUnits="userSpaceOnUse" r="21.166656" xlink:href="#a"/><radialGradient id="c" cx="450.908936" cy="189.579361" gradientTransform="matrix(-.00000021 .156265 .168766 .0000002 19.074987 -12.408873)" gradientUnits="userSpaceOnUse" r="21.166656" xlink:href="#a"/><radialGradient id="d" cx="450.908936" cy="189.579361" gradientTransform="matrix(-.00000021 -.156265 .168766 -.0000002 19.074987 129.836749)" gradientUnits="userSpaceOnUse" r="21.166656" xlink:href="#a"/><radialGradient id="e" cx="450.908936" cy="189.579361" gradientTransform="matrix(.00000021 .156265 -.168766 .0000002 83.857768 -12.408874)" gradientUnits="userSpaceOnUse" r="21.166656" xlink:href="#a"/><linearGradient id="f" gradientTransform="matrix(.00442264 0 0 .125012 49.561595 29.523658)" gradientUnits="userSpaceOnUse" x1="255.323059" x2="255.323044" y1="233.5" y2="254.666656"><stop offset="0" stop-opacity=".27451"/><stop offset="1" stop-opacity="0"/></linearGradient><linearGradient id="g"><stop offset="0" stop-color="#e0e0e0"/><stop offset="1" stop-color="#eee"/></linearGradient><linearGradient id="h" gradientUnits="userSpaceOnUse" x1="370.416656" x2="370.416656" xlink:href="#g" y1="254.666672" y2="-168.666656"/><linearGradient id="i" gradientUnits="userSpaceOnUse" x1="31.753048" x2="31.753048" xlink:href="#g" y1="58.71395600006" y2="5.79220799994"/><linearGradient id="j"><stop offset="0" stop-color="#42a5f5"/><stop offset="1" stop-color="#64b5f6"/></linearGradient><linearGradient id="k" gradientUnits="userSpaceOnUse" x1="21.1687" x2="21.1687" xlink:href="#j" y1="30.93003562474" y2="22.99177700006"/><linearGradient id="l" gradientUnits="userSpaceOnUse" x1="31.76674" x2="31.76674" xlink:href="#j" y1="30.93003562474" y2="22.99177700006"/><linearGradient id="m" gradientUnits="userSpaceOnUse" x1="42.351083" x2="42.351083" xlink:href="#j" y1="30.93003562474" y2="22.99177700006"/><path d="m52.261719 58.714844h3.171875v-2.648438h-3.171875zm0 0" fill="url(#b)"/><path d="m50.671875 58.714844h-3.175781v2.644531h3.175781zm0 0" fill="url(#c)"/><path d="m50.671875 58.714844h-3.175781v-2.648438h3.175781zm0 0" fill="url(#d)"/><path d="m52.261719 58.714844h3.171875v2.644531h-3.171875zm0 0" fill="url(#e)"/><path d="m50.671875 58.714844h1.589844v2.644531h-1.589844zm0 0" fill="url(#f)"/><path d="m306.908192 138.341258c-9.624081 0-14.154899 11.873866-7.030579 18.310751l105.833644 95.240905c6.780602 6.061921 17.529576 1.281128 17.529576-7.811754v-95.240905c0-5.811945-4.687053-10.498997-10.498998-10.498997zm0 0" fill="url(#h)" stroke="#212121" stroke-linecap="round" stroke-linejoin="round" stroke-width="3" transform="matrix(.125012 0 0 .125012 0 26.877566)"/><path d="m37.167969 44.957031c-.210938.480469-.144531 1.082031.320312 1.503907l13.230469 11.90625c.847656.757812 2.191406.160156 2.191406-.976563v-1.070313c0 1.136719-1.34375 1.738282-2.191406.976563l-13.230469-11.90625c-.144531-.128906-.25-.277344-.320312-.433594zm0 0" fill-opacity=".235294"/><path d="m9.261719 5.792969h44.984375c2.191406 0 3.96875 1.777343 3.96875 3.96875v34.398437c0 2.191406-1.777344 3.96875-3.96875 3.96875h-44.984375c-2.191407 0-3.96875-1.777344-3.96875-3.96875v-34.398437c0-2.191407 1.777343-3.96875 3.96875-3.96875zm0 0" fill="url(#i)"/><path d="m21.167969 22.992188c2.191406 0 3.96875 1.777343 3.96875 3.96875 0 2.191406-1.777344 3.96875-3.96875 3.96875-2.191407 0-3.96875-1.777344-3.96875-3.96875 0-2.191407 1.777343-3.96875 3.96875-3.96875zm0 0" fill="url(#k)"/><path d="m21.167969 22.992188c-2.199219 0-3.96875 1.769531-3.96875 3.96875 0 .113281.003906.222656.015625.332031.164062-2.042969 1.867187-3.640625 3.953125-3.640625 2.089843 0 3.789062 1.597656 3.957031 3.640625.007812-.109375.011719-.21875.011719-.332031 0-2.199219-1.769531-3.96875-3.96875-3.96875zm0 0" fill="#fff" fill-opacity=".392157"/><path d="m21.167969 31.757812c-2.199219 0-3.96875-1.769531-3.96875-3.96875 0-.113281.003906-.222656.015625-.332031.164062 2.042969 1.867187 3.636719 3.953125 3.636719 2.089843 0 3.789062-1.59375 3.957031-3.636719.007812.109375.011719.21875.011719.332031 0 2.199219-1.769531 3.96875-3.96875 3.96875zm0 0" fill-opacity=".235294"/><path d="m21.167969 22.804688c-2.296875 0-4.15625 1.855468-4.15625 4.15625 0 2.300781 1.859375 4.15625 4.15625 4.15625 2.300781 0 4.15625-1.855469 4.15625-4.15625 0-2.300782-1.855469-4.15625-4.15625-4.15625zm0 .375c2.097656 0 3.78125 1.683593 3.78125 3.78125 0 2.097656-1.683594 3.78125-3.78125 3.78125-2.097657 0-3.78125-1.683594-3.78125-3.78125 0-2.097657 1.683593-3.78125 3.78125-3.78125zm0 0" fill="#212121"/><path d="m9.261719 5.792969c-2.199219 0-3.96875 1.769531-3.96875 3.96875v.992187c0-2.199218 1.769531-3.96875 3.96875-3.96875h44.984375c2.199218 0 3.96875 1.769532 3.96875 3.96875v-.992187c0-2.199219-1.769532-3.96875-3.96875-3.96875zm0 0" fill="#f8f8f8"/><path d="m9.261719 48.128906c-2.199219 0-3.96875-1.769531-3.96875-3.96875v-.992187c0 2.199219 1.769531 3.96875 3.96875 3.96875h44.984375c2.199218 0 3.96875-1.769531 3.96875-3.96875v.992187c0 2.199219-1.769532 3.96875-3.96875 3.96875zm0 0" fill-opacity=".235294"/><path d="m74.086675-168.660675h359.840637c17.529576 0 31.746968 14.217392 31.746968 31.746968v275.161224c0 17.529576-14.217392 31.746968-31.746968 31.746968h-359.840637c-17.529576 0-31.746968-14.217392-31.746968-31.746968v-275.161224c0-17.529576 14.217392-31.746968 31.746968-31.746968zm0 0" fill="none" stroke="#212121" stroke-linecap="round" stroke-linejoin="round" stroke-width="3" transform="matrix(.125012 0 0 .125012 0 26.877566)"/><path d="m39.355469 48.128906 1.101562.992188h12.464844v-.992188zm0 0" fill-opacity=".235294"/><path d="m31.765625 22.992188c2.191406 0 3.96875 1.777343 3.96875 3.96875 0 2.191406-1.777344 3.96875-3.96875 3.96875s-3.96875-1.777344-3.96875-3.96875c0-2.191407 1.777344-3.96875 3.96875-3.96875zm0 0" fill="url(#l)"/><path d="m31.765625 22.992188c-2.199219 0-3.96875 1.769531-3.96875 3.96875 0 .113281.003906.222656.015625.332031.164062-2.042969 1.867188-3.640625 3.953125-3.640625 2.089844 0 3.789063 1.597656 3.957031 3.640625.007813-.109375.011719-.21875.011719-.332031 0-2.199219-1.769531-3.96875-3.96875-3.96875zm0 0" fill="#fff" fill-opacity=".392157"/><path d="m31.765625 31.757812c-2.199219 0-3.96875-1.769531-3.96875-3.96875 0-.113281.003906-.222656.015625-.332031.164062 2.042969 1.867188 3.636719 3.953125 3.636719 2.089844 0 3.789063-1.59375 3.957031-3.636719.007813.109375.011719.21875.011719.332031 0 2.199219-1.769531 3.96875-3.96875 3.96875zm0 0" fill-opacity=".235294"/><path d="m31.765625 22.804688c-2.296875 0-4.15625 1.855468-4.15625 4.15625 0 2.300781 1.859375 4.15625 4.15625 4.15625 2.300781 0 4.15625-1.855469 4.15625-4.15625 0-2.300782-1.855469-4.15625-4.15625-4.15625zm0 .375c2.097656 0 3.78125 1.683593 3.78125 3.78125 0 2.097656-1.683594 3.78125-3.78125 3.78125s-3.78125-1.683594-3.78125-3.78125c0-2.097657 1.683594-3.78125 3.78125-3.78125zm0 0" fill="#212121"/><path d="m42.351562 22.992188c2.191407 0 3.96875 1.777343 3.96875 3.96875 0 2.191406-1.777343 3.96875-3.96875 3.96875-2.191406 0-3.96875-1.777344-3.96875-3.96875 0-2.191407 1.777344-3.96875 3.96875-3.96875zm0 0" fill="url(#m)"/><path d="m42.351562 22.992188c-2.199218 0-3.96875 1.769531-3.96875 3.96875 0 .113281.003907.222656.011719.332031.167969-2.042969 1.867188-3.640625 3.957031-3.640625 2.085938 0 3.789063 1.597656 3.953126 3.640625.011718-.109375.015624-.21875.015624-.332031 0-2.199219-1.769531-3.96875-3.96875-3.96875zm0 0" fill="#fff" fill-opacity=".392157"/><path d="m42.351562 31.757812c-2.199218 0-3.96875-1.769531-3.96875-3.96875 0-.113281.003907-.222656.011719-.332031.167969 2.042969 1.867188 3.636719 3.957031 3.636719 2.085938 0 3.789063-1.59375 3.953126-3.636719.011718.109375.015624.21875.015624.332031 0 2.199219-1.769531 3.96875-3.96875 3.96875zm0 0" fill-opacity=".235294"/><path d="m42.351562 22.804688c-2.300781 0-4.15625 1.855468-4.15625 4.15625 0 2.300781 1.855469 4.15625 4.15625 4.15625 2.300782 0 4.15625-1.855469 4.15625-4.15625 0-2.300782-1.855468-4.15625-4.15625-4.15625zm0 .375c2.097657 0 3.78125 1.683593 3.78125 3.78125 0 2.097656-1.683593 3.78125-3.78125 3.78125-2.097656 0-3.78125-1.683594-3.78125-3.78125 0-2.097657 1.683594-3.78125 3.78125-3.78125zm0 0" fill="#212121"/></svg>

<?xml version="1.0" encoding="UTF-8"?>
<svg xmlns="http://www.w3.org/2000/svg" xmlns:xlink="http://www.w3.org/1999/xlink" width="64pt" height="64pt" viewBox="0 0 64 64" version="1.1">
<defs>
<radialGradient id="radial0" gradientUnits="userSpaceOnUse" cx="450.908936" cy="189.579361" fx="450.908936" fy="189.579361" r="21.166656" gradientTransform="matrix(0.000000209004,-0.156265,-0.168766,-0.000000203077,83.857771,129.836749)">
<stop offset="0" style="stop-color:rgb(0%,0%,0%);stop-opacity:0.313726;"/>
<stop offset="0.222222" style="stop-color:rgb(0%,0%,0%);stop-opacity:0.27451;"/>
<stop offset="1" style="stop-color:rgb(0%,0%,0%);stop-opacity:0;"/>
</radialGradient>
<radialGradient id="radial1" gradientUnits="userSpaceOnUse" cx="450.908936" cy="189.579361" fx="450.908936" fy="189.579361" r="21.166656" gradientTransform="matrix(-0.000000209004,0.156265,0.168766,0.000000203077,19.074987,-12.408873)">
<stop offset="0" style="stop-color:rgb(0%,0%,0%);stop-opacity:0.313726;"/>
<stop offset="0.222222" style="stop-color:rgb(0%,0%,0%);stop-opacity:0.27451;"/>
<stop offset="1" style="stop-color:rgb(0%,0%,0%);stop-opacity:0;"/>
</radialGradient>
<radialGradient id="radial2" gradientUnits="userSpaceOnUse" cx="450.908936" cy="189.579361" fx="450.908936" fy="189.579361" r="21.166656" gradientTransform="matrix(-0.000000209004,-0.156265,0.168766,-0.000000203077,19.074987,129.836749)">
<stop offset="0" style="stop-color:rgb(0%,0%,0%);stop-opacity:0.313726;"/>
<stop offset="0.222222" style="stop-color:rgb(0%,0%,0%);stop-opacity:0.27451;"/>
<stop offset="1" style="stop-color:rgb(0%,0%,0%);stop-opacity:0;"/>
</radialGradient>
<radialGradient id="radial3" gradientUnits="userSpaceOnUse" cx="450.908936" cy="189.579361" fx="450.908936" fy="189.579361" r="21.166656" gradientTransform="matrix(0.000000209004,0.156265,-0.168766,0.000000203077,83.857768,-12.408874)">
<stop offset="0" style="stop-color:rgb(0%,0%,0%);stop-opacity:0.313726;"/>
<stop offset="0.222222" style="stop-color:rgb(0%,0%,0%);stop-opacity:0.27451;"/>
<stop offset="1" style="stop-color:rgb(0%,0%,0%);stop-opacity:0;"/>
</radialGradient>
<linearGradient id="linear0" gradientUnits="userSpaceOnUse" x1="255.323059" y1="233.5" x2="255.323044" y2="254.666656" gradientTransform="matrix(0.00442264,0,0,0.125012,49.561595,29.523658)">
<stop offset="0" style="stop-color:rgb(0%,0%,0%);stop-opacity:0.27451;"/>
<stop offset="1" style="stop-color:rgb(0%,0%,0%);stop-opacity:0;"/>
</linearGradient>
<linearGradient id="linear1" gradientUnits="userSpaceOnUse" x1="370.416656" y1="254.666672" x2="370.416656" y2="-168.666656" >
<stop offset="0" style="stop-color:rgb(87.843138%,87.843138%,87.843138%);stop-opacity:1;"/>
<stop offset="1" style="stop-color:rgb(93.333334%,93.333334%,93.333334%);stop-opacity:1;"/>
</linearGradient>
<linearGradient id="linear2" gradientUnits="userSpaceOnUse" x1="254" y1="254.666672" x2="254" y2="-168.666672" gradientTransform="matrix(0.125012,0,0,0.125012,0,26.877566)">
<stop offset="0" style="stop-color:rgb(87.843138%,87.843138%,87.843138%);stop-opacity:1;"/>
<stop offset="1" style="stop-color:rgb(93.333334%,93.333334%,93.333334%);stop-opacity:1;"/>
</linearGradient>
<linearGradient id="linear3" gradientUnits="userSpaceOnUse" x1="190.5" y1="32.416645" x2="190.5" y2="-31.083328" gradientTransform="matrix(0.125012,0,0,0.125012,-2.646086,26.877566)">
<stop offset="0" style="stop-color:rgb(25.882354%,64.705884%,96.078432%);stop-opacity:1;"/>
<stop offset="1" style="stop-color:rgb(39.215687%,70.980394%,96.470588%);stop-opacity:1;"/>
</linearGradient>
<linearGradient id="linear4" gradientUnits="userSpaceOnUse" x1="190.5" y1="32.416645" x2="190.5" y2="-31.083328" gradientTransform="matrix(0.125012,0,0,0.125012,7.951954,26.877566)">
<stop offset="0" style="stop-color:rgb(25.882354%,64.705884%,96.078432%);stop-opacity:1;"/>
<stop offset="1" style="stop-color:rgb(39.215687%,70.980394%,96.470588%);stop-opacity:1;"/>
</linearGradient>
<linearGradient id="linear5" gradientUnits="userSpaceOnUse" x1="190.5" y1="32.416645" x2="190.5" y2="-31.083328" gradientTransform="matrix(0.125012,0,0,0.125012,18.536297,26.877566)">
<stop offset="0" style="stop-color:rgb(25.882354%,64.705884%,96.078432%);stop-opacity:1;"/>
<stop offset="1" style="stop-color:rgb(39.215687%,70.980394%,96.470588%);stop-opacity:1;"/>
</linearGradient>
</defs>
<g id="surface1">
<path style=" stroke:none;fill-rule:nonzero;fill:url(#radial0);" d="M 52.261719 58.714844 L 55.433594 58.714844 L 55.433594 56.066406 L 52.261719 56.066406 Z M 52.261719 58.714844 "/>
<path style=" stroke:none;fill-rule:nonzero;fill:url(#radial1);" d="M 50.671875 58.714844 L 47.496094 58.714844 L 47.496094 61.359375 L 50.671875 61.359375 Z M 50.671875 58.714844 "/>
<path style=" stroke:none;fill-rule:nonzero;fill:url(#radial2);" d="M 50.671875 58.714844 L 47.496094 58.714844 L 47.496094 56.066406 L 50.671875 56.066406 Z M 50.671875 58.714844 "/>
<path style=" stroke:none;fill-rule:nonzero;fill:url(#radial3);" d="M 52.261719 58.714844 L 55.433594 58.714844 L 55.433594 61.359375 L 52.261719 61.359375 Z M 52.261719 58.714844 "/>
<path style=" stroke:none;fill-rule:nonzero;fill:url(#linear0);" d="M 50.671875 58.714844 L 52.261719 58.714844 L 52.261719 61.359375 L 50.671875 61.359375 Z M 50.671875 58.714844 "/>
<path style="fill-rule:nonzero;fill:url(#linear1);stroke-width:3;stroke-linecap:round;stroke-linejoin:round;stroke:rgb(12.941177%,12.941177%,12.941177%);stroke-opacity:1;stroke-miterlimit:4;" d="M 306.908192 138.341258 C 297.284111 138.341258 292.753293 150.215124 299.877613 156.652009 L 405.711257 251.892914 C 412.491859 257.954835 423.240833 253.174042 423.240833 244.08116 L 423.240833 148.840255 C 423.240833 143.02831 418.55378 138.341258 412.741835 138.341258 Z M 306.908192 138.341258 " transform="matrix(0.125012,0,0,0.125012,0,26.877566)"/>
<path style=" stroke:none;fill-rule:nonzero;fill:rgb(0%,0%,0%);fill-opacity:0.235294;" d="M 37.167969 44.957031 C 36.957031 45.4375 37.023438 46.039062 37.488281 46.460938 L 50.71875 58.367188 C 51.566406 59.125 52.910156 58.527344 52.910156 57.390625 L 52.910156 56.320312 C 52.910156 57.457031 51.566406 58.058594 50.71875 57.296875 L 37.488281 45.390625 C 37.34375 45.261719 37.238281 45.113281 37.167969 44.957031 Z M 37.167969 44.957031 "/>
<path style=" stroke:none;fill-rule:nonzero;fill:url(#linear2);" d="M 9.261719 5.792969 L 54.246094 5.792969 C 56.4375 5.792969 58.214844 7.570312 58.214844 9.761719 L 58.214844 44.160156 C 58.214844 46.351562 56.4375 48.128906 54.246094 48.128906 L 9.261719 48.128906 C 7.070312 48.128906 5.292969 46.351562 5.292969 44.160156 L 5.292969 9.761719 C 5.292969 7.570312 7.070312 5.792969 9.261719 5.792969 Z M 9.261719 5.792969 "/>
<path style=" stroke:none;fill-rule:nonzero;fill:url(#linear3);" d="M 21.167969 22.992188 C 23.359375 22.992188 25.136719 24.769531 25.136719 26.960938 C 25.136719 29.152344 23.359375 30.929688 21.167969 30.929688 C 18.976562 30.929688 17.199219 29.152344 17.199219 26.960938 C 17.199219 24.769531 18.976562 22.992188 21.167969 22.992188 Z M 21.167969 22.992188 "/>
<path style=" stroke:none;fill-rule:nonzero;fill:rgb(100%,100%,100%);fill-opacity:0.392157;" d="M 21.167969 22.992188 C 18.96875 22.992188 17.199219 24.761719 17.199219 26.960938 C 17.199219 27.074219 17.203125 27.183594 17.214844 27.292969 C 17.378906 25.25 19.082031 23.652344 21.167969 23.652344 C 23.257812 23.652344 24.957031 25.25 25.125 27.292969 C 25.132812 27.183594 25.136719 27.074219 25.136719 26.960938 C 25.136719 24.761719 23.367188 22.992188 21.167969 22.992188 Z M 21.167969 22.992188 "/>
<path style=" stroke:none;fill-rule:nonzero;fill:rgb(0%,0%,0%);fill-opacity:0.235294;" d="M 21.167969 31.757812 C 18.96875 31.757812 17.199219 29.988281 17.199219 27.789062 C 17.199219 27.675781 17.203125 27.566406 17.214844 27.457031 C 17.378906 29.5 19.082031 31.09375 21.167969 31.09375 C 23.257812 31.09375 24.957031 29.5 25.125 27.457031 C 25.132812 27.566406 25.136719 27.675781 25.136719 27.789062 C 25.136719 29.988281 23.367188 31.757812 21.167969 31.757812 Z M 21.167969 31.757812 "/>
<path style=" stroke:none;fill-rule:nonzero;fill:rgb(12.941177%,12.941177%,12.941177%);fill-opacity:1;" d="M 21.167969 22.804688 C 18.871094 22.804688 17.011719 24.660156 17.011719 26.960938 C 17.011719 29.261719 18.871094 31.117188 21.167969 31.117188 C 23.46875 31.117188 25.324219 29.261719 25.324219 26.960938 C 25.324219 24.660156 23.46875 22.804688 21.167969 22.804688 Z M 21.167969 23.179688 C 23.265625 23.179688 24.949219 24.863281 24.949219 26.960938 C 24.949219 29.058594 23.265625 30.742188 21.167969 30.742188 C 19.070312 30.742188 17.386719 29.058594 17.386719 26.960938 C 17.386719 24.863281 19.070312 23.179688 21.167969 23.179688 Z M 21.167969 23.179688 "/>
<path style=" stroke:none;fill-rule:nonzero;fill:rgb(97.254902%,97.254902%,97.254902%);fill-opacity:1;" d="M 9.261719 5.792969 C 7.0625 5.792969 5.292969 7.5625 5.292969 9.761719 L 5.292969 10.753906 C 5.292969 8.554688 7.0625 6.785156 9.261719 6.785156 L 54.246094 6.785156 C 56.445312 6.785156 58.214844 8.554688 58.214844 10.753906 L 58.214844 9.761719 C 58.214844 7.5625 56.445312 5.792969 54.246094 5.792969 Z M 9.261719 5.792969 "/>
<path style=" stroke:none;fill-rule:nonzero;fill:rgb(0%,0%,0%);fill-opacity:0.235294;" d="M 9.261719 48.128906 C 7.0625 48.128906 5.292969 46.359375 5.292969 44.160156 L 5.292969 43.167969 C 5.292969 45.367188 7.0625 47.136719 9.261719 47.136719 L 54.246094 47.136719 C 56.445312 47.136719 58.214844 45.367188 58.214844 43.167969 L 58.214844 44.160156 C 58.214844 46.359375 56.445312 48.128906 54.246094 48.128906 Z M 9.261719 48.128906 "/>
<path style="fill:none;stroke-width:3;stroke-linecap:round;stroke-linejoin:round;stroke:rgb(12.941177%,12.941177%,12.941177%);stroke-opacity:1;stroke-miterlimit:4;" d="M 74.086675 -168.660675 L 433.927312 -168.660675 C 451.456888 -168.660675 465.67428 -154.443283 465.67428 -136.913707 L 465.67428 138.247517 C 465.67428 155.777093 451.456888 169.994485 433.927312 169.994485 L 74.086675 169.994485 C 56.557099 169.994485 42.339707 155.777093 42.339707 138.247517 L 42.339707 -136.913707 C 42.339707 -154.443283 56.557099 -168.660675 74.086675 -168.660675 Z M 74.086675 -168.660675 " transform="matrix(0.125012,0,0,0.125012,0,26.877566)"/>
<path style=" stroke:none;fill-rule:nonzero;fill:rgb(0%,0%,0%);fill-opacity:0.235294;" d="M 39.355469 48.128906 L 40.457031 49.121094 L 52.921875 49.121094 L 52.921875 48.128906 Z M 39.355469 48.128906 "/>
<path style=" stroke:none;fill-rule:nonzero;fill:url(#linear4);" d="M 31.765625 22.992188 C 33.957031 22.992188 35.734375 24.769531 35.734375 26.960938 C 35.734375 29.152344 33.957031 30.929688 31.765625 30.929688 C 29.574219 30.929688 27.796875 29.152344 27.796875 26.960938 C 27.796875 24.769531 29.574219 22.992188 31.765625 22.992188 Z M 31.765625 22.992188 "/>
<path style=" stroke:none;fill-rule:nonzero;fill:rgb(100%,100%,100%);fill-opacity:0.392157;" d="M 31.765625 22.992188 C 29.566406 22.992188 27.796875 24.761719 27.796875 26.960938 C 27.796875 27.074219 27.800781 27.183594 27.8125 27.292969 C 27.976562 25.25 29.679688 23.652344 31.765625 23.652344 C 33.855469 23.652344 35.554688 25.25 35.722656 27.292969 C 35.730469 27.183594 35.734375 27.074219 35.734375 26.960938 C 35.734375 24.761719 33.964844 22.992188 31.765625 22.992188 Z M 31.765625 22.992188 "/>
<path style=" stroke:none;fill-rule:nonzero;fill:rgb(0%,0%,0%);fill-opacity:0.235294;" d="M 31.765625 31.757812 C 29.566406 31.757812 27.796875 29.988281 27.796875 27.789062 C 27.796875 27.675781 27.800781 27.566406 27.8125 27.457031 C 27.976562 29.5 29.679688 31.09375 31.765625 31.09375 C 33.855469 31.09375 35.554688 29.5 35.722656 27.457031 C 35.730469 27.566406 35.734375 27.675781 35.734375 27.789062 C 35.734375 29.988281 33.964844 31.757812 31.765625 31.757812 Z M 31.765625 31.757812 "/>
<path style=" stroke:none;fill-rule:nonzero;fill:rgb(12.941177%,12.941177%,12.941177%);fill-opacity:1;" d="M 31.765625 22.804688 C 29.46875 22.804688 27.609375 24.660156 27.609375 26.960938 C 27.609375 29.261719 29.46875 31.117188 31.765625 31.117188 C 34.066406 31.117188 35.921875 29.261719 35.921875 26.960938 C 35.921875 24.660156 34.066406 22.804688 31.765625 22.804688 Z M 31.765625 23.179688 C 33.863281 23.179688 35.546875 24.863281 35.546875 26.960938 C 35.546875 29.058594 33.863281 30.742188 31.765625 30.742188 C 29.667969 30.742188 27.984375 29.058594 27.984375 26.960938 C 27.984375 24.863281 29.667969 23.179688 31.765625 23.179688 Z M 31.765625 23.179688 "/>
<path style=" stroke:none;fill-rule:nonzero;fill:url(#linear5);" d="M 42.351562 22.992188 C 44.542969 22.992188 46.320312 24.769531 46.320312 26.960938 C 46.320312 29.152344 44.542969 30.929688 42.351562 30.929688 C 40.160156 30.929688 38.382812 29.152344 38.382812 26.960938 C 38.382812 24.769531 40.160156 22.992188 42.351562 22.992188 Z M 42.351562 22.992188 "/>
<path style=" stroke:none;fill-rule:nonzero;fill:rgb(100%,100%,100%);fill-opacity:0.392157;" d="M 42.351562 22.992188 C 40.152344 22.992188 38.382812 24.761719 38.382812 26.960938 C 38.382812 27.074219 38.386719 27.183594 38.394531 27.292969 C 38.5625 25.25 40.261719 23.652344 42.351562 23.652344 C 44.4375 23.652344 46.140625 25.25 46.304688 27.292969 C 46.316406 27.183594 46.320312 27.074219 46.320312 26.960938 C 46.320312 24.761719 44.550781 22.992188 42.351562 22.992188 Z M 42.351562 22.992188 "/>
<path style=" stroke:none;fill-rule:nonzero;fill:rgb(0%,0%,0%);fill-opacity:0.235294;" d="M 42.351562 31.757812 C 40.152344 31.757812 38.382812 29.988281 38.382812 27.789062 C 38.382812 27.675781 38.386719 27.566406 38.394531 27.457031 C 38.5625 29.5 40.261719 31.09375 42.351562 31.09375 C 44.4375 31.09375 46.140625 29.5 46.304688 27.457031 C 46.316406 27.566406 46.320312 27.675781 46.320312 27.789062 C 46.320312 29.988281 44.550781 31.757812 42.351562 31.757812 Z M 42.351562 31.757812 "/>
<path style=" stroke:none;fill-rule:nonzero;fill:rgb(12.941177%,12.941177%,12.941177%);fill-opacity:1;" d="M 42.351562 22.804688 C 40.050781 22.804688 38.195312 24.660156 38.195312 26.960938 C 38.195312 29.261719 40.050781 31.117188 42.351562 31.117188 C 44.652344 31.117188 46.507812 29.261719 46.507812 26.960938 C 46.507812 24.660156 44.652344 22.804688 42.351562 22.804688 Z M 42.351562 23.179688 C 44.449219 23.179688 46.132812 24.863281 46.132812 26.960938 C 46.132812 29.058594 44.449219 30.742188 42.351562 30.742188 C 40.253906 30.742188 38.570312 29.058594 38.570312 26.960938 C 38.570312 24.863281 40.253906 23.179688 42.351562 23.179688 Z M 42.351562 23.179688 "/>
</g>
</svg>
